src/assets/images/NavTransferIcon.svg

<?xml version="1.0" encoding="UTF-8" standalone="no"?><!-- Generator: Gravit.io --><svg xmlns="http://www.w3.org/2000/svg" xmlns:xlink="http://www.w3.org/1999/xlink" style="isolation:isolate" viewBox="0 0 512 512" width="512pt" height="512pt"><defs><clipPath id="_clipPath_F4gINBaHxHB9ZbuVK7Ird3T01Uu0Amho"><rect width="512" height="512"/></clipPath></defs><g clip-path="url(#_clipPath_F4gINBaHxHB9ZbuVK7Ird3T01Uu0Amho)"><path d=" M 399.431 123.871 L 112.572 123.871 C 85.251 123.871 63.023 146.099 63.023 173.419 L 63.023 338.581 C 63.023 365.901 85.251 388.129 112.572 388.129 L 399.431 388.129 C 426.753 388.129 448.98 365.901 448.98 338.581 L 448.98 173.419 C 448.98 146.099 426.753 123.871 399.431 123.871 Z  M 344.462 355.097 L 167.542 355.097 C 160.772 318.945 132.207 290.381 96.056 283.611 L 96.056 228.388 C 132.207 221.619 160.771 193.054 167.542 156.902 L 344.462 156.902 C 351.232 193.054 379.797 221.618 415.947 228.388 L 415.947 283.611 C 379.796 290.381 351.232 318.946 344.462 355.097 L 344.462 355.097 Z  M 415.947 173.419 L 415.947 194.421 C 398.052 188.939 383.91 174.797 378.43 156.903 L 399.431 156.903 C 408.538 156.903 415.947 164.313 415.947 173.419 Z  M 112.572 156.903 L 133.574 156.903 C 128.094 174.798 113.951 188.94 96.056 194.422 L 96.056 173.419 C 96.056 164.313 103.465 156.903 112.572 156.903 Z  M 96.056 338.581 L 96.056 317.578 C 113.951 323.06 128.093 337.202 133.574 355.097 L 112.572 355.097 C 103.465 355.097 96.056 347.688 96.056 338.581 Z  M 399.431 355.097 L 378.43 355.097 C 383.91 337.202 398.052 323.06 415.947 317.579 L 415.947 338.581 C 415.947 347.688 408.538 355.097 399.431 355.097 Z  M 256.002 184.721 C 216.698 184.721 184.722 216.697 184.722 256.001 C 184.722 295.305 216.698 327.282 256.002 327.282 C 295.306 327.282 327.283 295.305 327.283 256.001 C 327.283 216.697 295.306 184.721 256.002 184.721 L 256.002 184.721 Z  M 256.002 294.248 C 234.912 294.248 217.754 277.09 217.754 256 C 217.754 234.91 234.912 217.752 256.002 217.752 C 277.092 217.752 294.25 234.91 294.25 256 C 294.25 277.09 277.091 294.248 256.002 294.248 Z  M 187.292 58.548 C 187.292 49.427 194.686 42.032 203.809 42.032 L 282.645 42.032 L 277.807 37.194 C 271.356 30.745 271.356 20.287 277.807 13.837 C 284.257 7.387 294.714 7.387 301.164 13.837 L 334.19 46.863 C 338.607 51.276 340.264 57.954 338.05 64.119 C 336.371 68.805 337.034 67.389 301.164 103.259 C 297.939 106.484 293.712 108.097 289.486 108.097 C 274.906 108.097 267.371 90.337 277.808 79.903 L 282.645 75.065 L 203.809 75.065 C 194.686 75.065 187.292 67.67 187.292 58.548 L 187.292 58.548 Z  M 304.712 453.452 C 304.712 462.573 297.317 469.968 288.196 469.968 L 209.359 469.968 L 214.196 474.806 C 220.647 481.255 220.647 491.713 214.196 498.163 C 207.748 504.612 197.289 504.613 190.839 498.163 C 155.606 462.93 157.059 464.577 155.751 462.621 C 152.778 458.18 152.066 452.366 154.227 447.134 C 155.927 443.035 155.382 444.199 190.839 408.742 C 197.289 402.292 207.747 402.292 214.196 408.742 C 220.647 415.192 220.647 425.65 214.196 432.099 L 209.359 436.935 L 288.196 436.935 C 297.317 436.935 304.712 444.331 304.712 453.452 L 304.712 453.452 Z " fill="rgb(150,153,181)"/></g></svg>

<?xml version="1.0" encoding="utf-8"?>
<!-- Generator: Adobe Illustrator 24.0.1, SVG Export Plug-In . SVG Version: 6.00 Build 0)  -->
<svg version="1.1" id="Layer_1" xmlns="http://www.w3.org/2000/svg" xmlns:xlink="http://www.w3.org/1999/xlink" x="0px" y="0px"
	 viewBox="0 0 512 512" style="enable-background:new 0 0 512 512;" xml:space="preserve">
<style type="text/css">
	.st0{clip-path:url(#SVGID_2_);fill:#AEAEAF;}
</style>
<g>
	<defs>
		<rect id="SVGID_1_" width="512" height="512"/>
	</defs>
	<clipPath id="SVGID_2_">
		<use xlink:href="#SVGID_1_"  style="overflow:visible;"/>
	</clipPath>
	<path class="st0" d="M399.4,123.9H112.6c-27.3,0-49.5,22.2-49.5,49.5v165.2c0,27.3,22.2,49.5,49.5,49.5h286.9
		c27.3,0,49.5-22.2,49.5-49.5V173.4C449,146.1,426.8,123.9,399.4,123.9z M344.5,355.1H167.5c-6.8-36.2-35.3-64.7-71.5-71.5v-55.2
		c36.2-6.8,64.7-35.3,71.5-71.5h176.9c6.8,36.2,35.3,64.7,71.5,71.5v55.2C379.8,290.4,351.2,318.9,344.5,355.1L344.5,355.1z
		 M415.9,173.4v21c-17.9-5.5-32-19.6-37.5-37.5h21C408.5,156.9,415.9,164.3,415.9,173.4z M112.6,156.9h21
		c-5.5,17.9-19.6,32-37.5,37.5v-21C96.1,164.3,103.5,156.9,112.6,156.9z M96.1,338.6v-21c17.9,5.5,32,19.6,37.5,37.5h-21
		C103.5,355.1,96.1,347.7,96.1,338.6z M399.4,355.1h-21c5.5-17.9,19.6-32,37.5-37.5v21C415.9,347.7,408.5,355.1,399.4,355.1z
		 M256,184.7c-39.3,0-71.3,32-71.3,71.3s32,71.3,71.3,71.3s71.3-32,71.3-71.3S295.3,184.7,256,184.7L256,184.7z M256,294.2
		c-21.1,0-38.2-17.2-38.2-38.2s17.2-38.2,38.2-38.2s38.2,17.2,38.2,38.2S277.1,294.2,256,294.2z M187.3,58.5
		c0-9.1,7.4-16.5,16.5-16.5h78.8l-4.8-4.8c-6.5-6.4-6.5-16.9,0-23.4c6.4-6.4,16.9-6.4,23.4,0l33,33c4.4,4.4,6.1,11.1,3.9,17.3
		c-1.7,4.7-1,3.3-36.9,39.1c-3.2,3.2-7.5,4.8-11.7,4.8c-14.6,0-22.1-17.8-11.7-28.2l4.8-4.8h-78.8C194.7,75.1,187.3,67.7,187.3,58.5
		L187.3,58.5z M304.7,453.5c0,9.1-7.4,16.5-16.5,16.5h-78.8l4.8,4.8c6.5,6.4,6.5,16.9,0,23.4c-6.4,6.4-16.9,6.5-23.4,0
		c-35.2-35.2-33.8-33.6-35.1-35.5c-3-4.4-3.7-10.3-1.5-15.5c1.7-4.1,1.2-2.9,36.6-38.4c6.4-6.5,16.9-6.5,23.4,0
		c6.5,6.4,6.5,16.9,0,23.4l-4.8,4.8h78.8C297.3,436.9,304.7,444.3,304.7,453.5L304.7,453.5z"/>
</g>
</svg>
